X: 27187
T: Miss Monaghan
R: reel
M: 4/4
K: Dmajor
|:D2ED FAAd|B2BA FABc|d2dB ABde|fede fee2|
{E}D2ED FAAd|~B3A FABc|d2dB ABdB|(3AGF EG FDD2:|
|:faab afdf|gefd edBc|~d3B ABde|fede fee2|
[1 faaa afdf|g2fd edBc|d2dB ABdB|AFEG FDD2:|
[2 g3e f3d|e3d BABc|d3B A3F|E3G FDD2||

